X:875
T:Last Night's Fun (slip jig)
T:Paddy Be Aisy
R:Slip Jig
O:Ireland
B:Ceol Rince 2 n107 (up in Edor)
B:Roche 2 254 (up in Am)
S:irishf~4.abc
Z:Transcription:?, chords:Mike Long
M:9/8
L:1/8
K:G
"Dm"D2A A2G "Am"ABc|"Dm"D2A A2G "C"EGE|"Dm"D2A A2G "Am"ABc|"G"dcB cBA "C"G2E|\
"Dm"D2A A2G "Am"ABc|"Dm"D2A AGE "C"G2E|
"Dm"D2A A2G "Am"ABc|"C"dcB cBA "G"G2E|]\
"G"BAB dBG "D"ABc|"G"B2c dBG "C"c2A|"G"BAB dBG "D"ABc|
"G"BAG AGE "C"G2E|\
"G"BAB dBG "D"ABc|"G"B2c dBG "C"c2A|"G"def "C"gfe "G"dBA|"G"BAG "D"AGE "G"G2E|]
